www/assets/icons/gps_off.svg

<svg xmlns="http://www.w3.org/2000/svg" width="24" height="24" viewBox="0 0 24 24" fill='currentColor'><path d="M20.94 11A8.994 8.994 0 0 0 13 3.06V1h-2v2.06c-1.13.12-2.19.46-3.16.97l1.5 1.5A6.995 6.995 0 0 1 19 12c0 .94-.19 1.84-.52 2.65l1.5 1.5c.5-.96.84-2.02.97-3.15H23v-2zM3 4.27l2.04 2.04A8.9 8.9 0 0 0 3.06 11H1v2h2.06A8.994 8.994 0 0 0 11 20.94V23h2v-2.06c1.77-.2 3.38-.91 4.69-1.98L19.73 21 21 19.73 4.27 3zm13.27 13.27a6.995 6.995 0 0 1-9.81-9.81z"/></svg>

<svg width="24" height="24" viewBox="0 0 24 24" xmlns="http://www.w3.org/2000/svg" fill='currentColor'><path d="M20.94 11C20.48 6.83 17.17 3.52 13 3.06V1H11V3.06C9.87 3.18 8.81 3.52 7.84 4.03L9.34 5.53C10.16 5.19 11.06 5 12 5C15.87 5 19 8.13 19 12C19 12.94 18.81 13.84 18.48 14.65L19.98 16.15C20.48 15.19 20.82 14.13 20.95 13H23V11H20.94ZM3 4.27L5.04 6.31C3.97 7.62 3.25 9.23 3.06 11H1V13H3.06C3.52 17.17 6.83 20.48 11 20.94V23H13V20.94C14.77 20.74 16.38 20.03 17.69 18.96L19.73 21L21 19.73L4.27 3L3 4.27ZM16.27 17.54C15.09 18.45 13.61 19 12 19C8.13 19 5 15.87 5 12C5 10.39 5.55 8.91 6.46 7.73L16.27 17.54Z"/></svg>
